X:1
T:CounterPoint
C:Liam
M:4/4
Q:1/4=90
L:1/4
V:1 name="Cantus Firmus"
K:Cm
%               Start of tune body:
V:1
 c d e d | f d e d | c G A B | c4 |]
%#
V:2 name="counterpoint" 
 f a D D | D g b G | B B e e | f4 |]
%#